packages/tokens/icons/connector/size32Px.svg

<svg viewBox="0 0 32 32" fill="none" xmlns="http://www.w3.org/2000/svg" width="1em" height="1em"><path d="M7.5 16L20 16" stroke="currentColor"/><path d="M7.5 7H11.1319C11.9567 7 12.6969 7.50636 12.9959 8.27511L16 16" stroke="currentColor"/><path d="M7.5 25H11.1319C11.9567 25 12.6969 24.4936 12.9959 23.7249L16 16" stroke="currentColor"/><path d="M20.0607 16.3536C19.8654 16.1583 19.8654 15.8417 20.0607 15.6464L24.3033 11.4038C24.4986 11.2085 24.8151 11.2085 25.0104 11.4038L29.253 15.6464C29.4483 15.8417 29.4483 16.1583 29.253 16.3536L25.0104 20.5962C24.8151 20.7915 24.4986 20.7915 24.3033 20.5962L20.0607 16.3536Z" stroke="currentColor"/><path d="M7.5 16C7.5 17.3807 6.38071 18.5 5 18.5C3.61929 18.5 2.5 17.3807 2.5 16C2.5 14.6193 3.61929 13.5 5 13.5C6.38071 13.5 7.5 14.6193 7.5 16Z" stroke="currentColor"/><circle cx="5" cy="7" r="2.5" stroke="currentColor"/><circle cx="5" cy="25" r="2.5" stroke="currentColor"/></svg>

<svg xmlns="http://www.w3.org/2000/svg" fill="none" viewBox="0 0 32 32" width="1em" height="1em"><path stroke="currentColor" d="M7.5 16H20M7.5 7h3.632a2 2 0 0 1 1.864 1.275L16 16m-8.5 9h3.632a2 2 0 0 0 1.864-1.275L16 16m4.06.354a.5.5 0 0 1 0-.708l4.243-4.242a.5.5 0 0 1 .707 0l4.243 4.242a.5.5 0 0 1 0 .708l-4.243 4.242a.5.5 0 0 1-.707 0l-4.242-4.242ZM7.5 16a2.5 2.5 0 1 1-5 0 2.5 2.5 0 0 1 5 0Z"/><circle cx="5" cy="7" r="2.5" stroke="currentColor"/><circle cx="5" cy="25" r="2.5" stroke="currentColor"/></svg>
